img/left-arrow.svg

<svg width="493" height="493" viewBox="0 0 493 493" fill="none" xmlns="http://www.w3.org/2000/svg">
<g clip-path="url(#clip0)">
<path d="M109.327 265.201L328.275 484.145C333.339 489.213 340.099 492.005 347.307 492.005C354.515 492.005 361.275 489.213 366.339 484.145L382.463 468.025C392.955 457.521 392.955 440.449 382.463 429.961L198.607 246.105L382.667 62.0454C387.731 56.9774 390.527 50.2214 390.527 43.0174C390.527 35.8054 387.731 29.0494 382.667 23.9774L366.543 7.86136C361.475 2.79336 354.719 0.00137329 347.511 0.00137329C340.303 0.00137329 333.543 2.79336 328.479 7.86136L109.327 227.005C104.251 232.089 101.463 238.877 101.479 246.093C101.463 253.337 104.251 260.121 109.327 265.201Z" fill="#FFA500"/>
</g>
<defs>
<clipPath id="clip0">
<rect width="492.004" height="492.004" fill="white" transform="translate(492.005 492.005) rotate(180)"/>
</clipPath>
</defs>
</svg>

<?xml version="1.0" encoding="iso-8859-1"?>
<!-- Generator: Adobe Illustrator 19.0.0, SVG Export Plug-In . SVG Version: 6.00 Build 0)  -->
<svg version="1.1" id="Layer_1" xmlns="http://www.w3.org/2000/svg" xmlns:xlink="http://www.w3.org/1999/xlink" x="0px" y="0px"
	 viewBox="0 0 492 492" style="color:rgb(255,255,255) ;" xml:space="preserve">
<g>
	<g>
		<path d="M198.608,246.104L382.664,62.04c5.068-5.056,7.856-11.816,7.856-19.024c0-7.212-2.788-13.968-7.856-19.032l-16.128-16.12
			C361.476,2.792,354.712,0,347.504,0s-13.964,2.792-19.028,7.864L109.328,227.008c-5.084,5.08-7.868,11.868-7.848,19.084
			c-0.02,7.248,2.76,14.028,7.848,19.112l218.944,218.932c5.064,5.072,11.82,7.864,19.032,7.864c7.208,0,13.964-2.792,19.032-7.864
			l16.124-16.12c10.492-10.492,10.492-27.572,0-38.06L198.608,246.104z"/>
	</g>
</g>
<g>
</g>
<g>
</g>
<g>
</g>
<g>
</g>
<g>
</g>
<g>
</g>
<g>
</g>
<g>
</g>
<g>
</g>
<g>
</g>
<g>
</g>
<g>
</g>
<g>
</g>
<g>
</g>
<g>
</g>
</svg>
